src/components/Footer/images/logo-11.svg

<svg width="470" height="262" viewBox="0 0 470 262" fill="none" xmlns="http://www.w3.org/2000/svg">
<path d="M214.75 137.18C214.75 149.95 204.76 159.36 192.5 159.36C180.24 159.36 170.25 149.95 170.25 137.18C170.25 124.32 180.24 115 192.5 115C204.76 115 214.75 124.32 214.75 137.18ZM205.01 137.18C205.01 129.2 199.22 123.74 192.5 123.74C185.78 123.74 179.99 129.2 179.99 137.18C179.99 145.08 185.78 150.62 192.5 150.62C199.22 150.62 205.01 145.07 205.01 137.18Z" fill="white"/>
<path d="M262.75 137.18C262.75 149.95 252.76 159.36 240.5 159.36C228.24 159.36 218.25 149.95 218.25 137.18C218.25 124.33 228.24 115 240.5 115C252.76 115 262.75 124.32 262.75 137.18ZM253.01 137.18C253.01 129.2 247.22 123.74 240.5 123.74C233.78 123.74 227.99 129.2 227.99 137.18C227.99 145.08 233.78 150.62 240.5 150.62C247.22 150.62 253.01 145.07 253.01 137.18Z" fill="white"/>
<path d="M308.75 116.34V156.16C308.75 172.54 299.09 179.23 287.67 179.23C276.92 179.23 270.45 172.04 268.01 166.16L276.49 162.63C278 166.24 281.7 170.5 287.66 170.5C294.97 170.5 299.5 165.99 299.5 157.5V154.31H299.16C296.98 157 292.78 159.35 287.48 159.35C276.39 159.35 266.23 149.69 266.23 137.26C266.23 124.74 276.39 115 287.48 115C292.77 115 296.97 117.35 299.16 119.96H299.5V116.35H308.75V116.34ZM300.19 137.26C300.19 129.45 294.98 123.74 288.35 123.74C281.63 123.74 276 129.45 276 137.26C276 144.99 281.63 150.62 288.35 150.62C294.98 150.62 300.19 144.99 300.19 137.26Z" fill="white"/>
<path d="M324 93V158H314.5V93H324Z" fill="white"/>
<path d="M361.02 144.48L368.58 149.52C366.14 153.13 360.26 159.35 350.1 159.35C337.5 159.35 328.09 149.61 328.09 137.17C328.09 123.98 337.58 114.99 349.01 114.99C360.52 114.99 366.15 124.15 367.99 129.1L369 131.62L339.35 143.9C341.62 148.35 345.15 150.62 350.1 150.62C355.06 150.62 358.5 148.18 361.02 144.48ZM337.75 136.5L357.57 128.27C356.48 125.5 353.2 123.57 349.34 123.57C344.39 123.57 337.5 127.94 337.75 136.5Z" fill="white"/>
<path d="M134.289 131.411V122.001H165.999C166.309 123.641 166.469 125.581 166.469 127.681C166.469 134.741 164.539 143.471 158.319 149.691C152.269 155.991 144.539 159.351 134.299 159.351C115.319 159.351 99.3594 143.891 99.3594 124.911C99.3594 105.931 115.319 90.4707 134.299 90.4707C144.799 90.4707 152.279 94.5907 157.899 99.9607L151.259 106.601C147.229 102.821 141.769 99.8807 134.289 99.8807C120.429 99.8807 109.589 111.051 109.589 124.911C109.589 138.771 120.429 149.941 134.289 149.941C143.279 149.941 148.399 146.331 151.679 143.051C154.339 140.391 156.089 136.591 156.779 131.401L134.289 131.411Z" fill="white"/>
</svg>

<svg xmlns="http://www.w3.org/2000/svg" width="470" height="262" fill="none" viewBox="0 0 470 262"><path fill="#fff" d="M214.75 137.18c0 12.77-9.99 22.18-22.25 22.18s-22.25-9.41-22.25-22.18c0-12.86 9.99-22.18 22.25-22.18s22.25 9.32 22.25 22.18m-9.74 0c0-7.98-5.79-13.44-12.51-13.44s-12.51 5.46-12.51 13.44c0 7.9 5.79 13.44 12.51 13.44s12.51-5.55 12.51-13.44m57.74 0c0 12.77-9.99 22.18-22.25 22.18s-22.25-9.41-22.25-22.18c0-12.85 9.99-22.18 22.25-22.18s22.25 9.32 22.25 22.18m-9.74 0c0-7.98-5.79-13.44-12.51-13.44s-12.51 5.46-12.51 13.44c0 7.9 5.79 13.44 12.51 13.44s12.51-5.55 12.51-13.44m55.74-20.84v39.82c0 16.38-9.66 23.07-21.08 23.07-10.75 0-17.22-7.19-19.66-13.07l8.48-3.53c1.51 3.61 5.21 7.87 11.17 7.87 7.31 0 11.84-4.51 11.84-13v-3.19h-.34c-2.18 2.69-6.38 5.04-11.68 5.04-11.09 0-21.25-9.66-21.25-22.09 0-12.52 10.16-22.26 21.25-22.26 5.29 0 9.49 2.35 11.68 4.96h.34v-3.61h9.25zm-8.56 20.92c0-7.81-5.21-13.52-11.84-13.52-6.72 0-12.35 5.71-12.35 13.52 0 7.73 5.63 13.36 12.35 13.36 6.63 0 11.84-5.63 11.84-13.36M324 93v65h-9.5V93zm37.02 51.48 7.56 5.04c-2.44 3.61-8.32 9.83-18.48 9.83-12.6 0-22.01-9.74-22.01-22.18 0-13.19 9.49-22.18 20.92-22.18 11.51 0 17.14 9.16 18.98 14.11l1.01 2.52-29.65 12.28c2.27 4.45 5.8 6.72 10.75 6.72 4.96 0 8.4-2.44 10.92-6.14m-23.27-7.98 19.82-8.23c-1.09-2.77-4.37-4.7-8.23-4.7-4.95 0-11.84 4.37-11.59 12.93m-203.461-5.089v-9.41h31.71c.31 1.64.47 3.58.47 5.68 0 7.06-1.93 15.79-8.15 22.01-6.05 6.3-13.78 9.66-24.02 9.66-18.98 0-34.94-15.46-34.94-34.44s15.96-34.44 34.94-34.44c10.5 0 17.98 4.12 23.6 9.49l-6.64 6.64c-4.03-3.78-9.49-6.72-16.97-6.72-13.86 0-24.7 11.17-24.7 25.03s10.84 25.03 24.7 25.03c8.99 0 14.11-3.61 17.39-6.89 2.66-2.66 4.41-6.46 5.1-11.65z"/></svg>
